public/images/svg/icon-zero-fees.svg

<svg fill="none" height="14" viewBox="0 0 15 14" width="15" xmlns="http://www.w3.org/2000/svg"><path clip-rule="evenodd" d="m7.99918 14c3.31372 0 6.00002-3.134 6.00002-7 0-.89612-.1444-1.75291-.4074-2.54045l-2.5935 2.42095c.0006.03972.0009.07955.0009.1195 0 2.76142-1.34316 5-3.00002 5-.60026 0-1.15935-.2938-1.62831-.7999l-1.72222 1.6077c.95679.7527 2.10967 1.1922 3.35053 1.1922zm3.68832-12.5216c-1.0175-.926419-2.29764-1.4784-3.68832-1.4784-3.31371 0-6 3.13401-6 7 0 1.09366.21498 2.12875.59833 3.0509l-1.48282 1.3984c-.401794.3789-.420339 1.0118-.04142 1.4136.37892.4018 1.01181.4203 1.41361.0414l11.64592-10.98285c.4018-.37892.4203-1.011816.0414-1.413611-.3789-.401794-1.0118-.4203389-1.4136-.04142zm-6.65443 6.27558c-.02232-.24591-.03389-.49769-.03389-.75398 0-2.76142 1.34315-5 3-5 .72796 0 1.39536.43213 1.91489 1.15088z" fill="#181818" fill-rule="evenodd"/></svg>

<svg width="15" height="14" viewBox="0 0 15 14" fill="none" xmlns="http://www.w3.org/2000/svg">
<path fill-rule="evenodd" clip-rule="evenodd" d="M7.99918 14C11.3129 14 13.9992 10.866 13.9992 7C13.9992 6.10388 13.8548 5.24709 13.5918 4.45955L10.9983 6.8805C10.9989 6.92022 10.9992 6.96005 10.9992 7C10.9992 9.76142 9.65604 12 7.99918 12C7.39892 12 6.83983 11.7062 6.37087 11.2001L4.64865 12.8078C5.60544 13.5605 6.75832 14 7.99918 14ZM11.6875 1.4784C10.67 0.551981 9.38986 0 7.99918 0C4.68547 0 1.99918 3.13401 1.99918 7C1.99918 8.09366 2.21416 9.12875 2.59751 10.0509L1.11469 11.4493C0.712896 11.8282 0.694351 12.4611 1.07327 12.8629C1.45219 13.2647 2.08508 13.2832 2.48688 12.9043L14.1328 1.92145C14.5346 1.54253 14.5531 0.909634 14.1742 0.507839C13.7953 0.106045 13.1624 0.0875001 12.7606 0.466419L11.6875 1.4784ZM5.03307 7.75398C5.01075 7.50807 4.99918 7.25629 4.99918 7C4.99918 4.23858 6.34233 2 7.99918 2C8.72714 2 9.39454 2.43213 9.91407 3.15088L5.03307 7.75398Z" fill="#181818"/>
</svg>
